X:1
T:Title
%%score { 1 | 2 }
L:1/8
M:4/4
K:Eb
V:1 treble nm="Grand Piano"
V:2 bass 
V:1
 z G | c3 d e2 d2 | c3 d B2 GB | B2 BA G2 c2 | cdc=B c3 G | c3 d e2 d2 | c3 d B2 GB | B2 BA G2 c2 | %8
 cdc=B c3 d | e2 f2 g2 gf | f3 e e3 g | fg e2 d2 cd | e2 dc c4 |] %13
V:2
 z2 | C,2 =B,,2 C,2 G,,2 | A,,2 F,,2 G,,3 E, | D,2 B,,2 E,2 C,2 | F,2 G,2 C,4 | %5
 C,2 =B,,2 C,2 G,,2 | A,,2 F,,2 G,,3 E, | D,2 B,,2 E,2 C,2 | F,2 G,2 C,3 G, | C,2 B,,2 E,2 G,A, | %10
 B,2 B,,2 E,2 E,,2 | B,,2 C,2 G,F,E,F, | G,2 G,,2 C,4 |] %13

